assets/icons/24px/outline/outbox-tray-24px.svg

<svg width="24" height="24" viewBox="0 0 24 24" fill="none" xmlns="http://www.w3.org/2000/svg">
<path d="M12 3V11.5M12 11.5L9.5 9.5M12 11.5L14.5 9.5" stroke="white" stroke-width="2" stroke-linecap="round" stroke-linejoin="round"/>
<path d="M3 14H6H7.54648C7.96619 14 8.17604 14 8.37881 14.0425C8.44818 14.057 8.51672 14.0752 8.58416 14.097C8.78128 14.1607 8.96348 14.2648 9.32789 14.4731V14.4731C10.4807 15.1318 11.0571 15.4612 11.6817 15.5278C11.8933 15.5504 12.1067 15.5504 12.3183 15.5278C12.9429 15.4612 13.5193 15.1318 14.6721 14.4731V14.4731C15.0365 14.2648 15.2187 14.1607 15.4158 14.097C15.4833 14.0752 15.5518 14.057 15.6212 14.0425C15.824 14 16.0338 14 16.4535 14H18H21V17C21 18.8856 21 19.8284 20.4142 20.4142C19.8284 21 18.8856 21 17 21H7C5.11438 21 4.17157 21 3.58579 20.4142C3 19.8284 3 18.8856 3 17V14Z" stroke="white" stroke-width="2"/>
<path d="M2 14C2 14.5523 2.44772 15 3 15C3.55228 15 4 14.5523 4 14H2ZM20 14C20 14.5523 20.4477 15 21 15C21.5523 15 22 14.5523 22 14H20ZM16.5 6C15.9477 6 15.5 6.44772 15.5 7C15.5 7.55228 15.9477 8 16.5 8V6ZM7.5 8C8.05228 8 8.5 7.55228 8.5 7C8.5 6.44772 8.05228 6 7.5 6V8ZM3.11501 11.3037L4.05751 11.6379L3.11501 11.3037ZM3.01508 11.727L2.02262 11.6045L3.01508 11.727ZM20.9063 11.3193L21.8594 11.0167L20.9063 11.3193ZM20.9877 11.7032L19.9939 11.8138L20.9877 11.7032ZM19.8077 8.81722L20.7215 8.41108L19.8077 8.81722ZM19.199 7.67574L18.4496 8.33787L19.199 7.67574ZM18.3017 7.09257L18.001 8.04628L18.3017 7.09257ZM5.03233 7.62645L5.7592 8.31323L5.03233 7.62645ZM18.8938 9.22336L19.8225 11.3127L21.6501 10.5005L20.7215 8.41108L18.8938 9.22336ZM4.21748 11.3011L5.29866 9.13874L3.50981 8.24431L2.42863 10.4067L4.21748 11.3011ZM2 12.2224V14H4V12.2224H2ZM20 12.1494V14H22V12.1494H20ZM16.5 8H17.0114V6H16.5V8ZM7.14118 8H7.5V6H7.14118V8ZM2.42863 10.4067C2.32787 10.6082 2.23889 10.7823 2.17252 10.9695L4.05751 11.6379C4.07336 11.5932 4.09567 11.5447 4.21748 11.3011L2.42863 10.4067ZM4 12.2224C4 11.95 4.00172 11.8967 4.00754 11.8496L2.02262 11.6045C1.99828 11.8016 2 11.9971 2 12.2224H4ZM2.17252 10.9695C2.09961 11.1751 2.04935 11.388 2.02262 11.6045L4.00754 11.8496C4.01645 11.7774 4.0332 11.7064 4.05751 11.6379L2.17252 10.9695ZM19.8225 11.3127C19.922 11.5367 19.9402 11.5811 19.9531 11.6219L21.8594 11.0167C21.8052 10.846 21.7324 10.6858 21.6501 10.5005L19.8225 11.3127ZM22 12.1494C22 11.9466 22.0014 11.7706 21.9816 11.5926L19.9939 11.8138C19.9986 11.8564 20 11.9043 20 12.1494H22ZM19.9531 11.6219C19.973 11.6844 19.9866 11.7487 19.9939 11.8138L21.9816 11.5926C21.9598 11.3971 21.9189 11.2042 21.8594 11.0167L19.9531 11.6219ZM20.7215 8.41108C20.4788 7.86517 20.2786 7.3873 19.9484 7.01361L18.4496 8.33787C18.5271 8.42555 18.5967 8.55488 18.8938 9.22336L20.7215 8.41108ZM17.0114 8C17.7429 8 17.8894 8.0111 18.001 8.04628L18.6024 6.13885C18.1268 5.9889 17.6088 6 17.0114 6V8ZM19.9484 7.01361C19.5875 6.60516 19.1222 6.30275 18.6024 6.13885L18.001 8.04628C18.1742 8.10092 18.3293 8.20172 18.4496 8.33787L19.9484 7.01361ZM5.29866 9.13874C5.61054 8.51499 5.68195 8.39499 5.7592 8.31323L4.30546 6.93968C3.9768 7.28752 3.76478 7.73436 3.50981 8.24431L5.29866 9.13874ZM7.14118 6C6.57105 6 6.07656 5.9898 5.61846 6.1282L6.19686 8.04273C6.30454 8.0102 6.44381 8 7.14118 8V6ZM5.7592 8.31323C5.879 8.18643 6.02988 8.09318 6.19686 8.04273L5.61846 6.1282C5.11751 6.27954 4.66486 6.55929 4.30546 6.93968L5.7592 8.31323Z" fill="white"/>
</svg>

<svg width="24" height="24" fill="none" xmlns="http://www.w3.org/2000/svg"><path d="M12 3v8.5m0 0l-2.5-2m2.5 2l2.5-2" stroke="#fff" stroke-width="2" stroke-linecap="round" stroke-linejoin="round"/><path d="M3 14h4.546c.42 0 .63 0 .833.043.07.014.138.032.205.054.197.064.38.168.744.376 1.153.659 1.73.988 2.354 1.055.211.022.425.022.636 0 .625-.067 1.201-.396 2.354-1.055.364-.208.547-.312.744-.376.067-.022.136-.04.205-.054.203-.043.413-.043.832-.043H21v3c0 1.886 0 2.828-.586 3.414C19.828 21 18.886 21 17 21H7c-1.886 0-2.828 0-3.414-.586C3 19.828 3 18.886 3 17v-3z" stroke="#fff" stroke-width="2"/><path d="M2 14a1 1 0 1 0 2 0H2zm18 0a1 1 0 1 0 2 0h-2zm-3.5-8a1 1 0 1 0 0 2V6zm-9 2a1 1 0 0 0 0-2v2zm-4.385 3.304l.943.334-.943-.334zm-.1.423l-.992-.123.992.123zm17.891-.408l.953-.302-.953.302zm.082.384l-.994.11.994-.11zm-1.18-2.886l.913-.406-.913.406zm-.609-1.141l-.75.662.75-.662zm-.897-.583L18 8.046l.3-.953zm-13.27.533l.727.687-.727-.687zm13.862 1.597l.929 2.09 1.827-.813-.928-2.089-1.828.812zM4.217 11.301L5.3 9.14l-1.79-.895-1.08 2.163 1.788.894zM2 12.222V14h2v-1.778H2zm18-.073V14h2v-1.85h-2zM16.5 8h.511V6H16.5v2zM7.141 8H7.5V6h-.359v2zM2.43 10.407c-.101.201-.19.375-.256.563l1.885.668c.015-.045.038-.093.16-.337l-1.79-.894zM4 12.222c0-.272.002-.325.008-.372l-1.985-.245c-.025.197-.023.392-.023.617h2zM2.173 10.97a3 3 0 0 0-.15.634l1.985.246a.999.999 0 0 1 .05-.212l-1.885-.668zm17.65.343c.099.224.117.268.13.309l1.906-.605c-.054-.171-.127-.331-.209-.516l-1.827.812zm2.177.836c0-.202.001-.378-.018-.556l-1.988.22c.005.043.006.091.006.336h2zm-2.047-.527a1 1 0 0 1 .04.192l1.989-.221a3.005 3.005 0 0 0-.123-.576l-1.906.605zm.768-3.21c-.242-.547-.442-1.025-.773-1.398L18.45 8.338c.077.088.147.217.444.885l1.828-.812zM17.011 8c.732 0 .878.011.99.046l.601-1.907c-.475-.15-.993-.139-1.59-.139v2zm2.937-.986a3 3 0 0 0-1.346-.875l-.601 1.907a1 1 0 0 1 .449.292l1.498-1.324zM5.298 9.139c.313-.624.384-.744.461-.826L4.305 6.94c-.328.348-.54.794-.795 1.304l1.789.895zM7.142 6c-.57 0-1.064-.01-1.523.128l.579 1.915C6.305 8.01 6.444 8 7.14 8V6zM5.76 8.313a1 1 0 0 1 .438-.27l-.579-1.915a3 3 0 0 0-1.313.812L5.76 8.313z" fill="#fff"/></svg>
